X: 334
T: Mazourka No. 1.	 Op. 50
C: Fryderyk Chopin
%%abc-version 2.0
%%abcx-abcm2ps-target-version 5.9.1 (29 Sep 2008)
%%abc-creator hum2abc beta
%%abcx-conversion-date 2021/10/03 11:23:42
%%abc-edited-by Leszek Kubiak
%%abc-edited-by Jacek Iwaszko
%%abc-edited-by Marta Lawrence
%%abcx-initial-encoding-date 2018-06-06
%%humdrum-veritas 954419965
%%humdrum-veritas-data 2611698712
%%linebreak <none>
%%barnumbers 0
L: 1/4
M: 3/4
N: Derived from 050-1a-Sm-001.krn
P: 3 Mazurkas pour piano
Q: "Vivace."
%%staves {1 2}
V: 1 clef=treble
V: 2 clef=bass
K: G
[V:1] .D/ z/ F/E/D/F/ & xC2- | 
[V:2] .D,,/ z/ A,/G,/F,/A,/ & xD,2 | 
[V:1] A/z//B//!accent![c2F2C2] & Cx2 | 
[V:2] zD2 & D,3- | 
[V:1] [B/G/D/]z//[A//C//][GB,][BDB,] | 
[V:2] D,/>D,/G,2 & G,,2G,,- | 
[V:1] [eGE]!accent![d2G2D2] | 
[V:2] [^A,^C,G,,][B,2D,2G,,2] | 
[V:1] .D/ z/ F/E/D/F/ & xC2- | 
[V:2] .D,,/ z/ A,/G,/F,/A,/ & xD,2 | 
[V:1] A/z//B//!accent![c2F2C2] & Cx2 | 
[V:2] xD2 & D,3- | 
[V:1] [B/G/D/]z//[A//C//][GB,][EC] | 
[V:2] D,/>D,/G,2- & G,,2C, | 
[V:1] [GDB,G,][E2C2G,2] | 
[V:2] G,,C,A,, | 
[V:1] .[D/C/-F,/] z/ F/E/D/F/ & xC2- | 
[V:2] D,,/ z/ A,/G,/F,/A,/ & xD,2 | 
[V:1] A/z//B//!accent![c2F2C2] & Cx2 | 
[V:2] xD2 & D,3- | 
[V:1] [B/G/D/]z//[A//C//][GB,][BDB,] | 
[V:2] D,/>D,/G,2 & G,,2G,,- | 
[V:1] {/=F}[e2F2][dB=F] | 
[V:2] B,3 & G,,2^G,, | 
[V:1] {/d} [c/E/]>[B/^G/D/][AE][B=FD] | 
[V:2] A,,/>B,,/C,D, | 
[V:1] [A/C/]>[^G/B,/][BD][AC] & E3 | 
[V:2] E,E,,A,, | 
[V:1] [B/D/]>[A/C/][=GB,][AEC] & ^Fx2 | 
[V:2] D,G,C, | 
[V:1] [G/B,/]>[F/A,/][AC][GB,] & D3 | 
[V:2] D,D,,G,, | 
[V:1] .^A/z//B//!accent!E2 | 
[V:2] E,,[E2G,2E,2]- | 
[V:1] F/G/ (3B/c/B/ A/B/ | 
[V:2] [E3E,3]- & G,G,F,/G,/ | 
[V:1] c/d/ed/c/ | 
[V:2] A,/B,/CB,/A,/ & [E3E,3]- | 
[V:1] {/Bc} B/z//^A//BG | 
[V:2] [E2E,2]x & G,/>F,/G,B, | 
[V:1] ^A/z//B//!accent!E2 | 
[V:2] E,,[E2G,2E,2]- | 
[V:1] ^F/G/ (3B/c/B/ A/B/ | 
[V:2] [E3E,3]- & G,G,F,/G,/ | 
[V:1] c/d/ed/c/ | 
[V:2] A,/B,/CB,/A,/ & [E3E,3]- | 
[V:1] B/z//c// (3B/c/B/ G/E/ & x2^C | 
[V:2] G,/z//A,//G,E,/G,/ & [EE,]xA,, | 
[V:1] .D/ z/ F/E/D/F/ & x=C2- | 
[V:2] .D,,/ z/ A,/G,/F,/A,/ & xD,2 | 
[V:1] A/z//B//[c2F2C2] & Cx2 | 
[V:2] xD2 & D,3- | 
[V:1] [B/G/D/]z//[A//C//][GB,][BDB,] | 
[V:2] D,/>D,/G,2 & G,,2G,,- | 
[V:1] [eGE]!accent![d2G2D2] | 
[V:2] [^A,^C,G,,][B,2D,2G,,2] | 
[V:1] .D/ z/ F/E/D/F/ & xC2- | 
[V:2] .D,,/ z/ A,/G,/F,/A,/ & xD,2 | 
[V:1] A/z//B//[c2F2C2] & Cx2 | 
[V:2] xD2 & D,3- | 
[V:1] [B/G/D/]z//[A//C//][GB,][EC] | 
[V:2] D,/>D,/G,2- & G,,2C, | 
[V:1] [GDB,][E2C2G,2] | 
[V:2] G,x2 & G,,C,A,, | 
[V:1] .[D/C/F,/] z/ F/E/D/F/ & xC2- | 
[V:2] .D,,/ z/ A,/G,/F,/A,/ & xD,2 | 
[V:1] A/z//B//[c2F2C2] & Cx2 | 
[V:2] xD2 & D,3- | 
[V:1] [B/G/D/]z//[A//C//][GB,][BDB,] | 
[V:2] D,/>D,/G,2 & G,,2G,,- | 
[V:1] {/=F-}[e2F2][dB=F] | 
[V:2] B,3 & G,,2^G,, | 
[V:1] {/d} [c/E/]>[B/^G/D/][AE][B=FD] | 
[V:2] A,,/>B,,/C,D, | 
[V:1] [A/C/]>[^G/B,/][BD][AC] & E3 | 
[V:2] E,E,,A,, | 
[V:1] Fx2 & [B/D/]>[A/C/][=GB,][AEC] | 
[V:2] D,G,C, | 
[V:1] [G/B,/]>[F/A,/][AC][GB,] & D3 | 
[V:2] D,D,,G,, | 
[V:1] xG2- & z[_EC][EC] | 
[V:2] _A,/G,/_E,C,/E,/ | 
[V:1] G3 & z[DC][DB,] | 
[V:2] G,,/D,/G,F,/G,/ | 
[V:1] z[G_EC][AE-] | 
[V:2] _A,/G,/_E,C,/=F,/ | 
[V:1] _B3 & ED[_AD] | 
[V:2] _B,,/=F,/_B,2 | 
[V:1] _BBc & z[GE]G- | 
[V:2] C/_B,/G,_E,/A,/ | 
[V:1] d3- & GF[AF] | 
[V:2] D,/A,/D^C/D/ | 
[V:1] d>d{/=f}e3//d// & z[_BG][BG] | 
[V:2] _E/D/_B,G,/B,/ | 
[V:1] dA2- & [AG]FF | 
[V:2] D,/A,/!accent!D2- | 
[V:1] A3- & [G=E][GE]F | 
[V:2] D/^C/A,D- | 
[V:1] A2x & [GE][GE]F | 
[V:2] D/^C/A,D3//=C// | 
[V:1] [G=FD][GFD][GE] | 
[V:2] C/B,/G,C3//B,// | 
[V:1] [^FE][FE^C][F^D] | 
[V:2] B,/^A,/F,B, | 
[V:1] .[^G/E/=D/]z//A//B=c3//B// & x!accent![G2D2] | 
[V:2] .E,,E2 & E,3 | 
[V:1] B/>A/ {/C}[e2-=G2C2-] & Cx2 | 
[V:2] A,,/E,/x2 & A,,3 | 
[V:1] e/d/cB3//A// & F3- | 
[V:2] CED3//C// & D,3- | 
[V:1] ^GA(3E/F/E/ & F2C- | 
[V:2] B,C=G, & D,3- | 
[V:1] DF/E/D/F/ & C3- | 
[V:2] F,A,/G,/F,/A,/ & D,3 | 
[V:1] A/z//B//!accent![c2F2C2] & Cx2 | 
[V:2] xD2 & D,3- | 
[V:1] [B/G/D/]z//[A//C//][GB,][BDB,] | 
[V:2] D,/>D,/G,2 & G,,2G,,- | 
[V:1] [eGE]!accent![d2G2D2] | 
[V:2] [^A,^C,G,,][B,2D,2G,,2] | 
[V:1] .D/ z/ F/E/D/F/ & xC2- | 
[V:2] .D,,/ z/ A,/G,/F,/A,/ & xD,2 | 
[V:1] A/z//B//!accent![c2F2C2] & Cx2 | 
[V:2] xD2 & D,3- | 
[V:1] [B/G/D/]z//[A//C//][GB,][EC] | 
[V:2] D,/>D,/G,2- & G,,2C, | 
[V:1] [GDB,][E2C2-G,2] | 
[V:2] G,C,A,, & G,,x2 | 
[V:1] .[D/C/F,/] z/ F/E/D/F/ & xC2- | 
[V:2] .D,,/ z/ A,/G,/F,/A,/ & xD,2 | 
[V:1] [A/C/]z//B//!accent![c2F2C2] | 
[V:2] xD2 & D,3- | 
[V:1] [B/G/D/]z//[A//C//][GB,][BDB,] | 
[V:2] D,/>D,/G,2 & G,,2G,,- | 
[V:1] {/=F-}[e2F2][dB=F] | 
[V:2] [B,2G,,2]^G,, | 
[V:1] {/d} [c/E/]>[B/^G/D/][AE][B=FD] | 
[V:2] A,,/>B,,/C,D, | 
[V:1] [A/C/]>[^G/B,/][BD][AC] & E3 | 
[V:2] E,E,,A,, | 
[V:1] [B/D/]>[A/C/][=GB,][AEC] & ^Fx2 | 
[V:2] D,G,C, | 
[V:1] [G/B,/]>[F/A,/][AC][GB,] & D3 | 
[V:2] D,D,,G,, | 
[V:1] _EEE & !accent!_B,3 | 
[V:2] _E,E,E, & G,,3 | 
[V:1] _E/>D/^CD & !accent!=B,3 | 
[V:2] _E,/>D,/^C,D, & G,,3 | 
[V:1] _E/>=F/GF3//E// & !accent!_B,!accent!B,!accent!B, | 
[V:2] _E,/>=F,/G,F,3//E,// & G,,G,,G,, | 
[V:1] =E/>D/^CD & !accent!=B,3 | 
[V:2] _E,/>D,/^C,D, & G,,3 | 
[V:1] [^G/=F/B,/]z//[A//^F//C//][B=F][c^F] & xD2 | 
[V:2] x^G,A, & {/D,,}D,3 | 
[V:1] ^c/>d/[g3/B3/][B/G/] & =Gx2 | 
[V:2] ^A,/>B,/D2- & =G,2G, | 
[V:1] [^G/=F/]z//[A//^F//][B=F][c^F] | 
[V:2] B,/z//C//^G,A, & [D3D,3] | 
[V:1] [e/^A/]>[d/B/] {/B} [b/B/]>g/ (3d/B/G/ | 
[V:2] ^C/>D/Gz & =G,2x | 
[V:1] !accent!_B3 & [_e_E][eE][eE] | 
[V:2] _E,E,E, & G,,3 | 
[V:1] !accent!_B3 & [_e/_E/]>[d/D/][^c^C][dD] | 
[V:2] _E,/>D,/^C,D, & G,,3 | 
[V:1] [_e/_E/]>[=f/=F/][gG][f3//F3//][e//E//] & !accent!_B!accent!B!accent!B | 
[V:2] _E,/>=F,/G,F,3//E,// & G,,G,,G,, | 
[V:1] !accent!=B3 & [_e/_E/]>[d/D/][^c^C][dD] | 
[V:2] _E,/>D,/^C,D, & G,,3 | 
[V:1] .[^G/=F/]z//[A//^F//][B=F][c^F] | 
[V:2] D,3- & .D,,/z//C//^G,A, | 
[V:1] [^c/=G/]>[e/_B/][gc][_be] | 
[V:2] _B,/>^C/EG & D,x2 | 
[V:1] [g/^c/]>[e/_B/][^cG][BE] | 
[V:2] E/>^C/_B,G, | 
[V:1] [e/G/E/]>[d/G/D/][=cFD][F=C] | 
[V:2] ^A,/>B,/xD & x=A,2 | 
[V:1] G3- & B,[=FDG,][FDG,] | 
[V:2] G,,B,,/A,,/G,,/B,,/ | 
[V:1] G3- & [_EDG,][EC][EC] | 
[V:2] C,/>_E,/G,2 | 
[V:1] G2x & [DC][DB,][BG] | 
[V:2] .G,,D,/B,/G,/E/ | 
[V:1] _dc(3c/d/c/ & [cG]F[FD] | 
[V:2] D/>A,/D,2 | 
[V:1] [BGD][G=FD][GFD] | 
[V:2] G,,B,,/A,,/G,,/B,,/ | 
[V:1] G3- & [_ED][EC][EC] | 
[V:2] C,/>_E,/G,2 | 
[V:1] G2x & [DC][DB,][BG] | 
[V:2] .G,,D,/B,/G,/E/ | 
[V:1] [cF][cF](3c/d/c/ & x2[FD] | 
[V:2] D/>A,/D,2 | 
[V:1] B2x & [GD][GD][BG] | 
[V:2] .G,,D,/B,/G,/E/ | 
[V:1] [BFC][AFC](3A/B/A/ & x2[FC] | 
[V:2] D/>A,/D,2 | 
[V:1] [GC][DB,][DB,] | 
[V:2] .G,,D,/B,/G,/E/ | 
[V:1] [DCF,][DCF,](3D/E/D/- & x2[CF,] | 
[V:2] D/A,/D,2 | 
[V:1] D3- & G,G,G, | 
[V:2] B,/D,/G,,B,/D,/ | 
[V:1] D2[_ECG,] & G,G,x | 
[V:2] G,,2C,, | 
[V:1] [_E/C/]D/[DB,].[gBG] | 
[V:2] {/=F}G,2[DG,] & G,,,zx | 
[V:1] !accent![g'3b3g3] |]  
[V:2] [K:clef=treble]!accent![d3G3] |]
